!!!OTL: 2119. St. Katharina.
!!!ARE: Europa, Mitteleuropa, Deutschland, Westfalen
!!!SCT: E2119B
!!!TXL: @@DE
!!!YEM: Copyright 1995, estate of Helmut Schaffrath.
**kern	**text
*ICvox	*
*M4/4	*
*met(c)	*
*k[b-e-]	*
*g:	*
!LO:TX:a:t=Mäßig langſam.	!
!LO:TX:a:t=Weſtfäliſch v. Harthauſen, geiſtl. Volksl. S. 198.	!
{4d	Der
=1	=1
4.g	Kai-
8a	-ſer
8ccL	und
8b-J	.
8aL	der
8gJ	.
=2	=2
8f#L	Kö-
8eJ	.
4d	-nig
4r}	.
{4dd	die
=3	=3
4dd	führ-
8ccL	-ten
8b-J	.
4cc	ei-
4b-	-nen
=4	=4
2a	Streit
4r}	.
{4a	ſie
=5	=5
4b-	woll-
8b-	-ten
8cc	die
8dd	hei-
8dd	-li-
8cc	-ge
8b-	Ka-
=6	=6
(4.cc	-thri-
8b-)	.
4a}	-na
{4dd	beid'
=7	=7
4g	ha-
8g	-ben
8a	ʒu
4b-	ei-
4a	-nem
=8	=8
2g	Weib.
4r}	.
==	==
!!!AGN: geistlich, Heiligen - Lied, Legende
!!!ONB: ESAC (Essen Associative Code) Database: ERK3
!!!AMT: simple quadruple
!!!AIN: vox
!!!EED: Helmut Schaffrath
!!!EEV: 1.0
!!!GTL: 4. Katholische Lieder: c) Heiligenlieder (Rufe und Legenden.)
!!!URL-scan: https://rosdok.uni-rostock.de/mcrviewer/recordIdentifier/rosdok_ppn745177999/iview2/phys_0814.iview2?x=188.96815741117916&y=2057.4452094063163&scale=0.7014306698522887&rotation=0&layout=singlePageLayout
!!!ENC: Anna Maria Matuszewska
!!!EEV: 2025/14/01
*-	*-
